X: 22301
T: La Ronde Des Milloraines
R: jig
M: 6/8
K: Dminor
dcd efg|a2 a gfe|[M:9/8] f2 e dcd A2 A|[M:6/8]
dcd efg|a2 a gfe|[M:9/8] f2 e d2 c d2:|
dcd B2 A|BAG A2 D|EFG ABA|GFG A2 A|
dcd B2 A|BAG A2 D|EFG ABA|1 GFE D2:|

